X: 1
T:Biddy From Sligo  "CYMRU 22:45 10/09/97"
M:6/8
L:1/8
Q:80
C:P/M G.S. McLennan
S:Jig
K:HP
|: {g}ed|
{gcd}c2{e}A{g}A{d}c{e}A|
{gef}ec{G}A{g}ABc|  !
{gBd}B2{e}G{g}G{d}B{e}G|
{g}dB{d}G{g}Bcd| |
{gcd}c2{e}A{g}A{d}c{e}A|  !
{gef}ec{G}A{g}ABc|
{g}dcd{g}Bcd|
{gef}ec{G}A{gAGAG}A:| |:  !
d|
{gcd}c2a{g}aga|
efe{gef}edc|
{gBG}B2g{a}gfg|  !
{a}ded{gde}dcB| |
{gcd}c2a{g}aga|
efe{gef}edc|  !
{g}dcd{g}Bcd|
{gef}ec{G}A{gAGAG}A:| |:
a|  !
{cd}c2{e}A{g}A{d}B{e}A|
{g}A{d}c{e}A{gef}ec{G}A|
{gBd}B2{e}G{g}G{d}A{g}G|  !
{g}G{d}B{e}G{gde}dB{d}G| |
{cd}c2{e}A{g}A{d}B{e}A|
{g}A{d}c{e}A{gef}ec{G}A|  !
{g}dcd{g}Bcd|
{gef}ec{G}A{gAGAG}A:| [|
d|  !
{g}c{d}A{d}caA{d}c|
f{g}A{d}ce{g}A{d}c|
{g}B{d}G{d}Bg{a}G{d}B|  !
e{g}G{d}Bd{e}G{d}B| |
{g}c{d}A{d}caA{d}c|
f{g}A{d}ce{g}A{d}c|  !
{g}dcd{g}Bcd|
{gef}ec{G}A{gAGAG}Ad| |
{g}c{d}A{d}c{g}cac|  !
{g}cfc{g}cec|
{g}B{d}G{d}B{g}BgB|
{g}BeB{g}BdB| |  !
{g}c{d}A{d}caec|
{g}fdB{gef}ec{G}A|
{g}dcd{g}Bcd|  !
{gef}ec{G}A{gAGAG}A2|]
